teeny/outline/message-text.svg

<svg width="15" height="15" viewBox="0 0 15 15" fill="none" xmlns="http://www.w3.org/2000/svg">
<path d="M5.5 11.4928L5.91594 11.2154C5.8232 11.0763 5.66712 10.9928 5.5 10.9928V11.4928ZM7.5 14.4909L7.08406 14.7683C7.1768 14.9074 7.33288 14.9909 7.5 14.9909C7.66712 14.9909 7.8232 14.9074 7.91594 14.7683L7.5 14.4909ZM9.5 11.4928V10.9928C9.33288 10.9928 9.1768 11.0763 9.08406 11.2154L9.5 11.4928ZM5.08406 11.7703L7.08406 14.7683L7.91594 14.2134L5.91594 11.2154L5.08406 11.7703ZM7.91594 14.7683L9.91594 11.7703L9.08406 11.2154L7.08406 14.2134L7.91594 14.7683ZM9.5 11.9928H13.5V10.9928H9.5V11.9928ZM13.5 11.9928C14.3288 11.9928 15 11.3226 15 10.4935H14C14 10.7697 13.7772 10.9928 13.5 10.9928V11.9928ZM15 10.4935V1.49935H14V10.4935H15ZM15 1.49935C15 0.670259 14.3288 0 13.5 0V1C13.7772 1 14 1.22316 14 1.49935H15ZM13.5 0H1.5V1H13.5V0ZM1.5 0C0.671165 0 0 0.670259 0 1.49935H1C1 1.22316 1.22283 1 1.5 1V0ZM0 1.49935V10.4935H1V1.49935H0ZM0 10.4935C0 11.3226 0.671165 11.9928 1.5 11.9928V10.9928C1.22284 10.9928 1 10.7697 1 10.4935H0ZM1.5 11.9928H5.5V10.9928H1.5V11.9928ZM5 8H10V7H5V8ZM4 5H11V4H4V5Z" fill="black"/>
</svg>

<svg viewBox="0 0 15 15" xmlns="http://www.w3.org/2000/svg"><path d="M5.5 11.49l.41-.28c-.1-.14-.25-.23-.42-.23v.5Zm2 2.99l-.42.27c.09.13.24.22.41.22 .16 0 .32-.09.41-.23l-.42-.28Zm2-3v-.5c-.17 0-.33.08-.42.22l.41.27Zm-4.42.27l2 2.99 .83-.56 -2-3 -.84.55Zm2.83 2.99l2-3 -.84-.56 -2 2.99 .83.55Zm1.58-2.78h4v-1h-4v1Zm4 0c.82 0 1.5-.68 1.5-1.5h-1c0 .27-.23.49-.5.49v1Zm1.5-1.5v-9h-1v8.99h1Zm0-9c0-.83-.68-1.5-1.5-1.5v1c.27 0 .5.22.5.49h1Zm-1.5-1.5h-12v1h12v-1Zm-12 0c-.83 0-1.5.67-1.5 1.49h1c0-.28.22-.5.5-.5v-1Zm-1.5 1.49v8.99h1v-9h-1Zm0 8.99c0 .82.67 1.49 1.5 1.49v-1c-.28 0-.5-.23-.5-.5h-1Zm1.5 1.49h4v-1h-4v1Zm3.5-4h5v-1h-5v1Zm-1-3h7v-1h-7v1Z"/></svg>
